X: 28515
T: Munster Buttermilk
R: jig
M: 6/8
K: Gmajor
|:g3 age|d2B BAB|d2B BAB|dBA GB/c/d|
g3 age|d2B BAB|dBA GAB|A3 G3:|
|:d2e g2a|b3 bag|~a3 age|~g3 age|
d2e g2a|b3 bag|age deg|1 a3 g2e:|2 a3 g3||

